X: 489
T: Chashan qingge
%%abc-version 2.0
%%abcx-abcm2ps-target-version 5.9.1 (29 Sep 2008)
%%abc-creator hum2abc beta
%%abcx-conversion-date 2013/10/02 07:52:30
%%abc-edited-by Helmut Schaffrath
%%humdrum-veritas 1058224887
%%humdrum-veritas-data 3322248822
%%continueall 1
%%barnumbers 0
L: 1/8
M: 2/4
K: C
D F G G [I:setbarnb 1]| 
c A/ c/G2 | 
G A/ c/ G A/ c/ | 
G E/ G/D2 | 
D> F G A | 
c ed2 | 
c> e d c | 
d> e G A | 
c4 |]  



